assets/static/svgs/currencies/icon-hong-kong-dollar.svg

<svg width="1em" height="1em"  viewBox="0 0 24 24" fill="none" xmlns="http://www.w3.org/2000/svg">
<symbol id="item"
width="1em"
height="1em"
viewBox="0 0 24 24"
fill="none"
>
 <g clip-path="url(#clip0)"> <path d="M12 24C18.6274 24 24 18.6274 24 12C24 5.37258 18.6274 0 12 0C5.37258 0 0 5.37258 0 12C0 18.6274 5.37258 24 12 24Z" fill="#E52931"/> <path d="M6.95081 2.88166C6.95081 2.88166 7.07156 2.88166 7.07156 2.76091C6.95081 2.76091 6.83006 2.64016 6.83006 2.64016C6.46781 2.27791 6.2263 2.0364 5.9848 1.67415C5.7433 1.7949 5.62255 1.91565 5.38104 2.0364C5.62255 2.64016 6.2263 3.00241 6.95081 2.88166Z" fill="#E52931"/> <path d="M6.46783 1.43264C6.46783 1.91565 6.70934 2.2779 6.95084 2.64016C6.46783 1.91565 6.95084 0.949635 7.7961 0.708132C7.91685 0.708132 8.0376 0.58738 8.15836 0.466629C7.67535 0.828883 7.07159 1.07039 6.46783 1.43264Z" fill="var(--color--bulma-100)"/> <path d="M6.83006 2.64015C6.58856 2.27789 6.46781 1.91564 6.34706 1.43263C6.2263 1.43263 6.10555 1.55338 5.9848 1.67414C6.22631 2.03639 6.46781 2.27789 6.83006 2.64015Z" fill="var(--color--bulma-100)"/> <path d="M6.83008 2.64017C6.95083 2.76092 6.95083 2.76092 7.07158 2.88167C6.95083 2.76092 6.95083 2.64017 6.83008 2.64017Z" fill="#DC2D26"/> <path d="M6.46782 1.43263C6.46782 1.31188 6.46782 1.43263 6.46782 1.43263C6.34707 1.43263 6.34707 1.43263 6.46782 1.43263C6.46782 1.91564 6.58857 2.27789 6.83008 2.5194C6.95083 2.64015 6.95083 2.64015 7.07158 2.7609L6.95083 2.64015C6.70932 2.39865 6.46782 1.91564 6.46782 1.43263Z" fill="#DC2D26"/> <path d="M8.1583 1.67414C8.76206 1.43264 9.48657 1.43264 10.0903 1.67414V1.79489C9.48657 1.55339 8.76206 1.55339 8.1583 1.67414C7.79605 1.91564 7.43379 2.2779 7.19229 2.64015C7.6753 2.03639 8.76206 2.03639 9.24507 2.88165C9.60732 3.48541 10.8148 3.72691 11.4186 3.24391C11.9016 2.7609 12.6261 2.7609 12.9884 3.36466C12.7469 0.10437 8.39981 -0.861642 7.19229 2.39865C7.43379 2.15714 7.79605 1.91564 8.1583 1.67414ZM10.3318 1.55339L10.5733 1.79489L10.9356 1.67414L10.6941 2.03639L10.8148 2.39865L10.5733 2.2779L10.3318 2.5194V2.15714L9.96957 2.03639L10.3318 1.91564V1.55339Z" fill="var(--color--bulma-100)"/> <path d="M10.3319 2.15715V2.5194L10.5734 2.2779L10.9356 2.39865L10.6941 2.0364L10.9356 1.79489L10.5734 1.91564L10.3319 1.55339V1.91564L9.9696 2.0364L10.3319 2.15715Z" fill="#DC2D26"/> <path d="M7.19235 2.51941C7.19235 2.64016 7.07159 2.76091 7.07159 2.76091C7.19235 2.64016 7.19235 2.51941 7.19235 2.51941Z" fill="#DC2D26"/> <path d="M7.19229 2.76009C7.19229 2.76009 7.19229 2.64017 7.31221 2.64017C7.19229 2.64017 7.19229 2.76009 7.19229 2.76009Z" fill="#DC2D26"/> <path d="M7.19231 2.76092L7.31306 2.64017C7.43381 2.27791 7.79607 1.91566 8.27907 1.79491C8.88283 1.5534 9.48659 1.5534 10.0903 1.79491V1.67415C9.48659 1.43265 8.76208 1.43265 8.15832 1.67415C7.79607 1.91566 7.43381 2.15716 7.19231 2.51941C7.19231 2.51941 7.19231 2.64017 7.19231 2.76092C7.07156 2.76092 7.07156 2.76092 7.19231 2.76092Z" fill="#DC2D26"/> <path d="M9.12432 5.29668C9.12432 4.69292 8.88282 3.96841 8.52056 3.4854C8.15831 3.2439 7.6753 3.0024 7.31305 2.88165C8.03756 3.2439 8.27906 4.20991 7.6753 4.93442C7.31305 5.41743 7.31305 6.62494 8.03756 6.9872C8.64132 7.34945 8.76207 8.07396 8.39981 8.55696C11.4186 7.34945 10.9356 2.88165 7.55455 2.76089C7.91681 2.88165 8.27906 3.12315 8.52056 3.4854C8.88282 3.96841 9.12432 4.69292 9.12432 5.29668ZM9.24507 6.14194L8.88282 6.02118L8.64132 6.26269V5.90043L8.39981 5.77968L8.64132 5.65893V5.29668L8.88282 5.53818L9.24507 5.41743L9.12432 5.90043L9.24507 6.14194Z" fill="var(--color--bulma-100)"/> <path d="M9.00357 5.65895L8.76206 5.29669L8.64131 5.65895L8.39981 5.7797L8.64131 5.90045V6.2627L8.88282 6.0212L9.24507 6.14195L9.12432 5.90045L9.24507 5.53819L9.00357 5.65895Z" fill="#DC2D26"/> <path d="M7.43385 2.88164C7.3131 2.88164 7.19235 2.88164 7.07159 2.88164C7.3131 2.76089 7.43385 2.88164 7.43385 2.88164Z" fill="#DC2D26"/> <path d="M7.07159 2.76089C7.19272 2.76089 7.19272 2.76089 7.07159 2.76089C7.19272 2.88202 7.19272 2.88202 7.07159 2.76089C7.19272 2.76089 7.19272 2.76089 7.07159 2.76089C7.19272 2.76089 7.19272 2.76089 7.07159 2.76089Z" fill="#DC2D26"/> <path d="M7.19229 2.88164C7.19229 2.88164 7.31304 2.88164 7.31304 3.00239C7.6753 3.12314 8.1583 3.24389 8.39981 3.60615C8.88281 4.08915 9.00356 4.69291 9.00356 5.29667H9.12431C9.12431 4.69291 8.88281 3.9684 8.52056 3.4854C8.27905 3.12314 7.9168 2.88164 7.43379 2.88164C7.43379 2.88164 7.31304 2.76089 7.19229 2.88164Z" fill="#DC2D26"/> <path d="M6.95081 4.33068C6.58855 4.93443 5.9848 5.29669 5.38104 5.41744V5.29669C5.9848 5.29669 6.4678 4.81368 6.95081 4.33068C7.07156 3.96842 7.19231 3.48542 7.07156 3.00241C7.07156 3.84767 6.10555 4.45143 5.26029 4.08917C4.65653 3.84767 3.56977 4.20993 3.44902 4.93443C3.20751 5.65894 2.72451 6.0212 2 5.77969C4.05277 8.19472 8.15832 6.5042 7.19231 3.12316C7.19231 3.60617 7.07156 3.96842 6.95081 4.33068ZM5.13954 5.77969L4.89804 5.65894L4.65653 5.90045V5.53819L4.29428 5.41744L4.65653 5.29669V4.93443L4.89804 5.17594L5.26029 5.05519L5.01879 5.41744L5.13954 5.77969Z" fill="var(--color--bulma-100)"/> <path d="M4.89804 5.17592L4.65654 4.93442V5.29667L4.29428 5.41742L4.65654 5.53817V5.90043L4.89804 5.65893L5.13954 5.77968L5.01879 5.41742L5.26029 5.17592H4.89804Z" fill="#DC2D26"/> <path d="M7.07156 2.88165C7.07156 3.0024 7.07156 3.0024 7.07156 3.0024C7.07156 3.36466 7.07156 3.84766 6.83006 4.33067C6.46781 4.81368 5.9848 5.29668 5.38104 5.41743V5.53818C5.9848 5.41743 6.58856 5.05518 6.95081 4.45142C7.19231 4.08917 7.31307 3.60616 7.31307 3.24391C7.19231 3.12316 7.19231 3.0024 7.07156 2.88165Z" fill="#DC2D26"/> <path d="M5.62254 3.0024C6.10554 3.12316 6.58855 3.0024 6.9508 2.88165C6.22629 3.0024 5.62254 2.64015 5.38103 2.03639C5.13953 2.15714 4.89803 2.39865 4.65652 2.5194C4.89803 2.7609 5.26028 2.88165 5.62254 3.0024Z" fill="var(--color--bulma-100)"/> <path d="M6.83004 3.00242C6.46778 3.12317 5.98478 3.12317 5.62252 3.12317C5.26027 3.00242 4.89801 2.88167 4.65651 2.64017C4.29425 2.76092 4.05275 3.00242 3.81125 3.24392C4.65651 3.72693 5.74327 3.72693 6.83004 3.00242Z" fill="var(--color--bulma-100)"/> <path d="M7.07073 2.76089C7.07073 2.76089 6.95081 2.76089 6.95081 2.88081C6.95081 2.88081 6.95081 2.88081 7.07073 2.76089C7.07073 2.88081 7.07073 2.76089 7.07073 2.76089Z" fill="#DC2D26"/> <path d="M6.83008 3.0024C6.95083 3.0024 7.07158 2.88165 7.07158 2.88165C6.95083 2.88165 6.83008 3.0024 6.83008 3.0024Z" fill="#DC2D26"/> <path d="M7.07158 2.88166H6.95083C6.46782 3.12317 6.10557 3.12317 5.62256 3.00241C5.26031 2.88166 4.89805 2.76091 4.65655 2.51941C4.65655 2.51941 4.65655 2.51941 4.5358 2.51941C4.7773 2.76091 5.13955 2.88166 5.50181 3.00241C5.98481 3.12317 6.34707 3.12317 6.70932 2.88166C6.83008 3.00241 6.95083 2.88166 7.07158 2.88166Z" fill="#DC2D26"/> <path d="M9.39995 15.6998H7.89995V13.2998H5.69995V15.6998H4.19995V9.89981H5.69995V12.1998H7.89995V9.89981H9.39995V15.6998Z" fill="#FCFCFC"/> <path d="M16.0999 15.6998H14.0999L12.0999 13.1998V15.6998H10.5999V9.89981H12.0999V12.2998L13.9999 9.89981H15.8999L13.5999 12.6998L16.0999 15.6998Z" fill="#FCFCFC"/> <path d="M20.3 13.9998C20.3 12.7998 19.5 12.4998 18.3 12.0998C17.7 11.8998 17.5 11.7998 17.5 11.5998C17.5 11.3998 17.7 11.1998 18 11.1998C18.4 11.1998 18.8 11.2998 19.3 11.6998L20.1 10.6998C19.7 10.3998 19.1 10.0998 18.5 9.8998V8.7998H17.5V9.7998C16.6 9.9998 16 10.6998 16 11.6998C16 12.7998 16.9 13.1998 17.9 13.4998C18.6 13.6998 18.7 13.8998 18.7 14.0998C18.7 14.2998 18.5 14.4998 18.2 14.4998C17.8 14.4998 17.2 14.2998 16.7 13.7998L15.9 14.7998C16.4 15.2998 17 15.5998 17.7 15.6998V16.6998H18.6V15.6998C19.6 15.5998 20.3 14.9998 20.3 13.9998Z" fill="#FCFCFC"/> </g> <defs> <clipPath id="clip0"> <rect width="24" height="24" fill="var(--color--bulma-100)"/> </clipPath> </defs> 
</symbol>
</svg>

<svg width="1em" height="1em"    viewBox="0 0 24 24" fill="none" xmlns="http://www.w3.org/2000/svg">
<symbol id="item"
width="1em"
height="1em"
viewBox="0 0 24 24"
fill="none"
>
<g clip-path="url(#a)"><path d="M12 24c6.627 0 12-5.373 12-12S18.627 0 12 0 0 5.373 0 12s5.373 12 12 12Z" fill="#E52931"/><path d="M6.95 2.882s.122 0 .122-.121c-.121 0-.242-.12-.242-.12-.362-.363-.604-.605-.845-.967-.242.12-.362.242-.604.362.242.604.845.966 1.57.846Z" fill="#E52931"/><path d="M6.468 1.433c0 .483.241.845.483 1.207-.483-.724 0-1.69.845-1.932.12 0 .242-.12.362-.241-.483.362-1.086.603-1.69.966Z" fill="var(--color--bulma-100)"/><path d="M6.83 2.64c-.241-.362-.362-.724-.483-1.207-.12 0-.241.12-.362.241.241.362.483.604.845.966Z" fill="var(--color--bulma-100)"/><path d="m6.83 2.64.242.242C6.95 2.76 6.95 2.64 6.83 2.64ZM6.468 1.433c0-.121 0 0 0 0-.12 0-.12 0 0 0 0 .483.12.845.362 1.086l.242.242-.121-.12c-.242-.242-.483-.725-.483-1.208Z" fill="#DC2D26"/><path d="M8.158 1.674a2.667 2.667 0 0 1 1.932 0v.12c-.603-.24-1.328-.24-1.932-.12a3.675 3.675 0 0 0-.966.966c.483-.604 1.57-.604 2.053.242.362.603 1.57.845 2.174.362.483-.483 1.207-.483 1.57.12-.242-3.26-4.59-4.226-5.797-.965.242-.242.604-.483.966-.725Zm2.174-.12.241.24.363-.12-.242.362.12.363-.24-.121-.242.241v-.362l-.362-.12.362-.121v-.363Z" fill="var(--color--bulma-100)"/><path d="M10.332 2.157v.362l.241-.241.363.12-.242-.362.242-.241-.363.12-.241-.362v.363l-.362.12.362.121ZM7.192 2.52c0 .12-.12.24-.12.24.12-.12.12-.24.12-.24ZM7.192 2.76s0-.12.12-.12c-.12 0-.12.12-.12.12Z" fill="#DC2D26"/><path d="m7.192 2.76.121-.12c.12-.362.483-.724.966-.845a2.354 2.354 0 0 1 1.811 0v-.12a2.667 2.667 0 0 0-1.932 0c-.362.24-.724.482-.966.844v.242c-.12 0-.12 0 0 0Z" fill="#DC2D26"/><path d="M9.124 5.297c0-.604-.241-1.329-.603-1.812a5.64 5.64 0 0 0-1.208-.603c.725.362.966 1.328.362 2.052-.362.483-.362 1.69.363 2.053.603.362.724 1.087.362 1.57 3.019-1.208 2.536-5.675-.845-5.796.362.12.724.362.966.724.362.483.603 1.208.603 1.812Zm.121.845-.362-.12-.242.24V5.9L8.4 5.78l.241-.121v-.362l.242.241.362-.12-.12.482.12.242Z" fill="var(--color--bulma-100)"/><path d="m9.004 5.659-.242-.362-.12.362-.242.12.241.121v.363l.242-.242.362.12-.12-.24.12-.363-.241.12ZM7.434 2.882h-.362c.241-.121.362 0 .362 0Z" fill="#DC2D26"/><path d="M7.072 2.76c.12 0 .12 0 0 0 .12.122.12.122 0 0 .12 0 .12 0 0 0 .12 0 .12 0 0 0Z" fill="#DC2D26"/><path d="M7.192 2.882s.121 0 .121.12c.362.121.845.242 1.087.604.483.483.604 1.087.604 1.69h.12c0-.603-.241-1.328-.603-1.81-.242-.363-.604-.604-1.087-.604 0 0-.121-.121-.242 0Z" fill="#DC2D26"/><path d="M6.95 4.33a2.371 2.371 0 0 1-1.569 1.087v-.12c.604 0 1.087-.483 1.57-.966.12-.363.241-.846.12-1.329 0 .846-.965 1.45-1.81 1.087-.604-.241-1.691.12-1.812.845-.241.725-.724 1.087-1.449.846 2.053 2.415 6.158.724 5.192-2.657 0 .483-.12.845-.241 1.208ZM5.14 5.78l-.242-.121-.241.241v-.362l-.363-.12.363-.121v-.363l.241.242.362-.12-.241.361.12.363Z" fill="var(--color--bulma-100)"/><path d="m4.898 5.176-.241-.242v.363l-.363.12.363.121V5.9l.241-.241.242.12-.121-.362.241-.241h-.362ZM7.072 2.882v.12c0 .363 0 .846-.242 1.329-.362.483-.845.966-1.449 1.086v.121a2.371 2.371 0 0 0 1.57-1.087 2.33 2.33 0 0 0 .362-1.207c-.12-.12-.12-.242-.241-.362Z" fill="#DC2D26"/><path d="M5.623 3.002c.483.121.966 0 1.328-.12-.725.12-1.328-.242-1.57-.846-.241.121-.483.363-.724.483.241.242.603.363.966.483Z" fill="var(--color--bulma-100)"/><path d="M6.83 3.002c-.362.121-.845.121-1.207.121-.363-.12-.725-.241-.966-.483-.363.12-.604.362-.846.604.846.483 1.932.483 3.019-.242Z" fill="var(--color--bulma-100)"/><path d="M7.07 2.76s-.12 0-.12.12l.12-.12c0 .12 0 0 0 0ZM6.83 3.002c.12 0 .242-.12.242-.12-.121 0-.242.12-.242.12Z" fill="#DC2D26"/><path d="M7.072 2.882H6.95c-.483.241-.845.241-1.328.12-.363-.12-.725-.241-.966-.483h-.121c.241.242.604.363.966.483.483.121.845.121 1.207-.12.121.12.242 0 .363 0Z" fill="#DC2D26"/><path d="M9.4 15.7H7.9v-2.4H5.7v2.4H4.2V9.9h1.5v2.3h2.2V9.9h1.5v5.8ZM16.1 15.7h-2l-2-2.5v2.5h-1.5V9.9h1.5v2.4L14 9.9h1.9l-2.3 2.8 2.5 3Z" fill="#FCFCFC"/><path d="M20.3 14c0-1.2-.8-1.5-2-1.9-.6-.2-.8-.3-.8-.5s.2-.4.5-.4c.4 0 .8.1 1.3.5l.8-1c-.4-.3-1-.6-1.6-.8V8.8h-1v1c-.9.2-1.5.9-1.5 1.9 0 1.1.9 1.5 1.9 1.8.7.2.8.4.8.6 0 .2-.2.4-.5.4-.4 0-1-.2-1.5-.7l-.8 1c.5.5 1.1.8 1.8.9v1h.9v-1c1-.1 1.7-.7 1.7-1.7Z" fill="#FCFCFC"/></g><defs><clipPath id="a"><path fill="var(--color--bulma-100)" d="M0 0h24v24H0z"/></clipPath></defs>
</symbol>
</svg>
